SVG_Azure_Grouped/Application/Application Service Deployment Slot.svg

<?xml version="1.0" encoding="UTF-8" standalone="no"?>
<!-- Generated by Microsoft Visio, SVG Export Application Service Deployment Slot.svg Page-1 -->

<svg
   xmlns:dc="http://purl.org/dc/elements/1.1/"
   xmlns:cc="http://creativecommons.org/ns#"
   xmlns:rdf="http://www.w3.org/1999/02/22-rdf-syntax-ns#"
   xmlns:svg="http://www.w3.org/2000/svg"
   xmlns="http://www.w3.org/2000/svg"
   xmlns:sodipodi="http://sodipodi.sourceforge.net/DTD/sodipodi-0.dtd"
   xmlns:inkscape="http://www.inkscape.org/namespaces/inkscape"
   width="0.78737551in"
   height="0.7903325in"
   viewBox="0 0 56.690945 56.903921"
   xml:space="preserve"
   class="st7"
   version="1.1"
   id="svg65"
   sodipodi:docname="Application Service Deployment Slot.svg"
   style="font-size:12px;overflow:visible;color-interpolation-filters:sRGB;fill:none;fill-rule:evenodd;stroke-linecap:square;stroke-miterlimit:3"
   inkscape:version="0.92.5 (2060ec1f9f, 2020-04-08)"><metadata
   id="metadata69"><rdf:RDF><cc:Work
       rdf:about=""><dc:format>image/svg+xml</dc:format><dc:type
         rdf:resource="http://purl.org/dc/dcmitype/StillImage" /></cc:Work></rdf:RDF></metadata><sodipodi:namedview
   pagecolor="#ffffff"
   bordercolor="#666666"
   borderopacity="1"
   objecttolerance="10"
   gridtolerance="10"
   guidetolerance="10"
   inkscape:pageopacity="0"
   inkscape:pageshadow="2"
   inkscape:window-width="640"
   inkscape:window-height="480"
   id="namedview67"
   showgrid="false"
   inkscape:zoom="1.4170538"
   inkscape:cx="37.795366"
   inkscape:cy="37.936037"
   inkscape:window-x="0"
   inkscape:window-y="0"
   inkscape:window-maximized="0"
   inkscape:current-layer="svg65" />
	<style
   type="text/css"
   id="style2">
	<![CDATA[
		.st1 {fill:#76bc2d;stroke:none;stroke-linecap:butt;stroke-width:34}
		.st2 {fill:url(#grad0-8);stroke:none;stroke-linecap:butt;stroke-width:34}
		.st3 {fill:#198ab3;stroke:none;stroke-linecap:butt;stroke-width:34}
		.st4 {fill:#f2f2f2;fill-opacity:0.7;stroke:none;stroke-linecap:butt;stroke-width:34}
		.st5 {fill:url(#grad0-16);stroke:none;stroke-linecap:butt;stroke-width:34}
		.st6 {fill:#5e9624;stroke:none;stroke-linecap:butt;stroke-width:34}
		.st7 {fill:none;fill-rule:evenodd;font-size:12px;overflow:visible;stroke-linecap:square;stroke-miterlimit:3}
	]]>
	</style>

	<defs
   id="Patterns_And_Gradients">
		<linearGradient
   id="grad0-8"
   x1="-9.771434e-06"
   y1="147.46185"
   x2="25.58831"
   y2="147.46185"
   gradientTransform="scale(1.3853988,0.72181383)"
   gradientUnits="userSpaceOnUse">
			<stop
   offset="0"
   stop-color="#32bedd"
   stop-opacity="1"
   id="stop4" />
			<stop
   offset="1"
   stop-color="#50e6ff"
   stop-opacity="1"
   id="stop6" />
		</linearGradient>
		<linearGradient
   id="grad0-16"
   x1="-1.9182208e-06"
   y1="147.46182"
   x2="25.588314"
   y2="147.46182"
   gradientTransform="scale(1.3853986,0.72181394)"
   gradientUnits="userSpaceOnUse">
			<stop
   offset="0"
   stop-color="#76bc2d"
   stop-opacity="1"
   id="stop9" />
			<stop
   offset="1"
   stop-color="#86d633"
   stop-opacity="1"
   id="stop11" />
		</linearGradient>
	</defs>
	<g
   id="g63"
   transform="translate(-34.000064,-34.001597)">
		<title
   id="title15">Page-1</title>
		<g
   id="group14448-1"
   transform="translate(34,-34.2145)">
			<title
   id="title17">Application Service Deployment Slot.14448</title>
			<g
   id="group14449-2">
				<title
   id="title19">Sheet.14449</title>
				<g
   id="shape14450-3"
   transform="translate(39.7732,-18.2061)">
					<title
   id="title21">Sheet.14450</title>
					<path
   d="m 0,124.38 a 0.39685,0.399155 -180 0 0 0.258268,0.50053 L 4.98,124.84 c 0.23,0 6.45,0.07 6.69,0.06 l 4.72,-0.03 a 0.40315,0.405491 -180 0 0 0.314961,-0.12038 0.39685,0.399155 -180 0 0 0,-0.56389 L 8.57,116.04 a 0.425197,0.427666 -180 0 0 -0.592126,0 L 0.03,124.3 Z"
   class="st1"
   id="path23"
   inkscape:connector-curvature="0"
   style="fill:#76bc2d;stroke:none;stroke-width:34;stroke-linecap:butt" />
				</g>
				<g
   id="shape14451-5"
   transform="translate(0,-17.7689)">
					<title
   id="title26">Sheet.14451</title>
					<path
   d="m 22.43,114.66 a 3.77953,3.80148 0 0 1 -3.78,-3.81 v -4.41 H 0 v 17.27 a 1.1874,1.1943 -180 0 0 1.19,1.2 h 33.07 a 1.1874,1.1943 -180 0 0 1.19,-1.2 v -9.05 z"
   class="st2"
   id="path28"
   inkscape:connector-curvature="0"
   style="fill:url(#grad0-8);stroke:none;stroke-width:34;stroke-linecap:butt" />
				</g>
				<g
   id="shape14452-9"
   transform="translate(0,-35.1322)">
					<title
   id="title31">Sheet.14452</title>
					<path
   d="M 18.65,116.21 H 1.19 A 1.19055,1.19747 -180 0 0 0,117.38 v 7.53 h 18.65 z"
   class="st3"
   id="path33"
   inkscape:connector-curvature="0"
   style="fill:#198ab3;stroke:none;stroke-width:34;stroke-linecap:butt" />
				</g>
				<g
   id="shape14453-11"
   transform="translate(4.7685,-37.9643)">
					<title
   id="title36">Sheet.14453</title>
					<path
   d="M 13.88,121.83 H 0.59 a 0.582677,0.586061 -180 0 0 -0.585827,0.58606 L 0,124.32 a 0.582677,0.586061 -180 0 0 0.585827,0.58606 L 13.88,124.91 Z"
   class="st4"
   id="path38"
   inkscape:connector-curvature="0"
   style="fill:#f2f2f2;fill-opacity:0.7;stroke:none;stroke-width:34;stroke-linecap:butt" />
				</g>
				<g
   id="shape14454-13"
   transform="translate(21.2409,-30.6274)">
					<title
   id="title41">Sheet.14454</title>
					<path
   d="m 0,106.44 v 17.27 a 1.19055,1.19747 -180 0 0 1.19,1.2 h 33.07 a 1.1874,1.1943 -180 0 0 1.19,-1.2 v -17.27 z"
   class="st5"
   id="path43"
   inkscape:connector-curvature="0"
   style="fill:url(#grad0-16);stroke:none;stroke-width:34;stroke-linecap:butt" />
				</g>
				<g
   id="shape14455-17"
   transform="translate(21.2409,-47.9939)">
					<title
   id="title46">Sheet.14455</title>
					<path
   d="m 1.19,116.21 h 33.07 a 1.1874,1.1943 0 0 1 1.19,1.21 v 7.49 H 0 v -7.53 a 1.19055,1.19747 0 0 1 1.19,-1.17 z"
   class="st6"
   id="path48"
   inkscape:connector-curvature="0"
   style="fill:#5e9624;stroke:none;stroke-width:34;stroke-linecap:butt" />
				</g>
				<g
   id="shape14456-19"
   transform="translate(26.0157,-50.8355)">
					<title
   id="title51">Sheet.14456</title>
					<path
   d="m 0,124.32 a 0.582691,0.586075 -180 0 0 0.582677,0.58606 L 25.34,124.91 a 0.582691,0.586075 -180 0 0 0.582677,-0.58606 L 25.92,122.43 a 0.582691,0.586075 -180 0 0 -0.582677,-0.58606 L 0.58,121.84 a 0.582691,0.586075 -180 0 0 -0.582677,0.58606 z"
   class="st4"
   id="path53"
   inkscape:connector-curvature="0"
   style="fill:#f2f2f2;fill-opacity:0.7;stroke:none;stroke-width:34;stroke-linecap:butt" />
				</g>
				<g
   id="shape14457-21"
   transform="translate(14.3402)">
					<title
   id="title56">Sheet.14457</title>
					<path
   d="M 31.74,106.59 A 14.1323,14.2144 0 0 1 4.32,111.48 1.00472,1.01056 -180 0 0 3.37,110.83 H 0.97 A 1.01417,1.02006 -180 0 0 0,112.15 18.4189,18.5259 -180 0 0 35.99,106.59 Z"
   class="st1"
   id="path58"
   inkscape:connector-curvature="0"
   style="fill:#76bc2d;stroke:none;stroke-width:34;stroke-linecap:butt" />
				</g>
			</g>
		</g>
	</g>
</svg>

<?xml version="1.0" encoding="UTF-8" standalone="no"?>
<!DOCTYPE svg PUBLIC "-//W3C//DTD SVG 1.1//EN" "http://www.w3.org/Graphics/SVG/1.1/DTD/svg11.dtd">
<!-- Generated by Microsoft Visio, SVG Export Application Service Deployment Slot.svg Page-1 -->
<svg xmlns="http://www.w3.org/2000/svg" xmlns:xlink="http://www.w3.org/1999/xlink" xmlns:ev="http://www.w3.org/2001/xml-events"
		width="1.73185in" height="1.73482in" viewBox="0 0 124.693 124.907" xml:space="preserve" color-interpolation-filters="sRGB"
		class="st7">
	<style type="text/css">
	<![CDATA[
		.st1 {fill:#76bc2d;stroke:none;stroke-linecap:butt;stroke-width:34}
		.st2 {fill:url(#grad0-8);stroke:none;stroke-linecap:butt;stroke-width:34}
		.st3 {fill:#198ab3;stroke:none;stroke-linecap:butt;stroke-width:34}
		.st4 {fill:#f2f2f2;fill-opacity:0.7;stroke:none;stroke-linecap:butt;stroke-width:34}
		.st5 {fill:url(#grad0-16);stroke:none;stroke-linecap:butt;stroke-width:34}
		.st6 {fill:#5e9624;stroke:none;stroke-linecap:butt;stroke-width:34}
		.st7 {fill:none;fill-rule:evenodd;font-size:12px;overflow:visible;stroke-linecap:square;stroke-miterlimit:3}
	]]>
	</style>

	<defs id="Patterns_And_Gradients">
		<linearGradient id="grad0-8" x1="0" y1="0" x2="1" y2="0" gradientTransform="rotate(-90 0.5 0.5)">
			<stop offset="0" stop-color="#32bedd" stop-opacity="1"/>
			<stop offset="1" stop-color="#50e6ff" stop-opacity="1"/>
		</linearGradient>
		<linearGradient id="grad0-16" x1="0" y1="0" x2="1" y2="0" gradientTransform="rotate(-90 0.5 0.5)">
			<stop offset="0" stop-color="#76bc2d" stop-opacity="1"/>
			<stop offset="1" stop-color="#86d633" stop-opacity="1"/>
		</linearGradient>
	</defs>
	<g>
		<title>Page-1</title>
		<g id="group14101-1" transform="translate(34,-34.2145)">
			<title>Application Service Deployment Slot.14101</title>
			<g id="group14102-2">
				<title>Sheet.14102</title>
				<g id="shape14103-3" transform="translate(39.7732,-18.2061)">
					<title>Sheet.14103</title>
					<path d="M0 124.38 a0.39685 0.399155 -180 0 0 0.258268 0.500528 L4.98 124.84 C5.21 124.84 11.43 124.91 11.67
								 124.9 L16.39 124.87 a0.40315 0.405491 -180 0 0 0.314961 -0.12038 a0.39685 0.399155 -180 0 0 -1.06581E-14
								 -0.563886 L8.57 116.04 a0.425197 0.427666 -180 0 0 -0.592126 0 L0.03 124.3 L0 124.38 Z"
							class="st1"/>
				</g>
				<g id="shape14104-5" transform="translate(0,-17.7689)">
					<title>Sheet.14104</title>
					<path d="M22.43 114.66 A3.77953 3.80148 0 0 1 18.65 110.85 L18.65 106.44 L0 106.44 L0 123.71 A1.1874 1.1943 -180
								 0 0 1.19 124.91 L34.26 124.91 A1.1874 1.1943 -180 0 0 35.45 123.71 L35.45 114.66 L22.43 114.66 Z"
							class="st2"/>
				</g>
				<g id="shape14105-9" transform="translate(0,-35.1322)">
					<title>Sheet.14105</title>
					<path d="M18.65 116.21 L1.19 116.21 A1.19055 1.19747 -180 0 0 0 117.38 L0 124.91 L18.65 124.91 L18.65 116.21 Z"
							class="st3"/>
				</g>
				<g id="shape14106-11" transform="translate(4.7685,-37.9643)">
					<title>Sheet.14106</title>
					<path d="M13.88 121.83 L0.59 121.83 a0.582677 0.586061 -180 0 0 -0.585827 0.586061 L0 124.32 a0.582677 0.586061
								 -180 0 0 0.585827 0.586061 L13.88 124.91 L13.88 121.83 Z" class="st4"/>
				</g>
				<g id="shape14107-13" transform="translate(21.2409,-30.6274)">
					<title>Sheet.14107</title>
					<path d="M0 106.44 L0 123.71 A1.19055 1.19747 -180 0 0 1.19 124.91 L34.26 124.91 A1.1874 1.1943 -180 0 0 35.45
								 123.71 L35.45 106.44 L0 106.44 Z" class="st5"/>
				</g>
				<g id="shape14108-17" transform="translate(21.2409,-47.9939)">
					<title>Sheet.14108</title>
					<path d="M1.19 116.21 L34.26 116.21 A1.1874 1.1943 0 0 1 35.45 117.42 L35.45 124.91 L0 124.91 L0 117.38 A1.19055
								 1.19747 0 0 1 1.19 116.21 Z" class="st6"/>
				</g>
				<g id="shape14109-19" transform="translate(26.0157,-50.8355)">
					<title>Sheet.14109</title>
					<path d="M0 124.32 a0.582691 0.586075 -180 0 0 0.582677 0.586061 L25.34 124.91 a0.582691 0.586075 -180 0 0 0.582677
								 -0.586061 L25.92 122.43 a0.582691 0.586075 -180 0 0 -0.582677 -0.586061 L0.58 121.84 a0.582691 0.586075
								 -180 0 0 -0.582677 0.586061 L0 124.32 Z" class="st4"/>
				</g>
				<g id="shape14110-21" transform="translate(14.3402,1.42109E-14)">
					<title>Sheet.14110</title>
					<path d="M31.74 106.59 A14.1323 14.2144 0 0 1 4.32 111.48 A1.00472 1.01056 -180 0 0 3.37 110.83 L0.97 110.83
								 A1.01417 1.02006 -180 0 0 0 112.15 A18.4189 18.5259 -180 0 0 35.99 106.59 L31.74 106.59 Z"
							class="st1"/>
				</g>
			</g>
		</g>
	</g>
</svg>
